X:134
T:Lucy Neal. Le4.134
M:2/4
L:1/8
Q:1/4=100
B:L.Leadley MS#4 c1850
Z:Village Music Project, 2016 Ruairidh Greig
K:C
G/G/|c>c cc|cc2c|(c>d cB)|A3d|
(dB GB)|(df e>d)|(c>c ed)|c3G|
c>c cc|cc2c/c/|(cdcB)|A3d|
(dB GB)|(dfed)|(c>c ed)|c4|
(c>B cd)|He4|(f>e dc)|HA4|
d>d dd|(df) (ed)|c>c (ed)|c4|]

